!!!COM: Joplin, Scott
!!!CDT: 1868/11/24/-1917/04/01/
!!!OTL: Scott Joplin's New Rag
!!!ODT: 1912///
!!!OMD: Allegro Moderato
!!!PPR: Jos. W. Stern & Co.
!!!PPP: New York
!!!PDT: 1912///
**kern	**kern	**dynam
*staff2	*staff1	*staff1/2
*Ipiano	*Ipiano	*Ipiano
*>[I,A,A1,A,A2,B,B1,B,B2,C,D,D1,D,D2,E]	*>[I,A,A1,A,A2,B,B1,B,B2,C,D,D1,D,D2,E]	*>[I,A,A1,A,A2,B,B1,B,B2,C,D,D1,D,D2,E]
*>norep[I,A,A2,B,B2,C,D,D2,E]	*>norep[I,A,A2,B,B2,C,D,D2,E]	*>norep[I,A,A2,B,B2,C,D,D2,E]
*>I	*>I	*>I
*clefF4	*clefG2	*clefG2
*k[]	*k[]	*k[]
*M2/4	*M2/4	*M2/4
*MM100	*MM100	*MM100
=1-	=1-	=1-
16ELL	16cLL	f
16F	16d	.
16G	16e	<
[16AJJ	[16fJJ	.
16ALL]	16fLL]	.
16B	16g	.
16c	16a	.
16dJJ	16bJJ	.
=2	=2	=2
16eLL	16ccLL	.
16d	16b	.
16c	16a	>
[16BJJ	[16gJJ	.
16BLL]	16gLL]	.
16AJ	16fJ	.
8GJ	8eJ	.
=3	=3	=3
16eLL	(16gLL	.
16f	16a	.
16e	16g	.
16d#JJ	16f#JJ)	.
16eLL	(16gLL	.
16f	16a	.
16e	16g	.
16d#JJ	16f#JJ	.
=4	=4	=4
&(8e&)	8g)	.
8E 8eL	8g 8ggL	.
8D# 8d#	8a 8ff#	.
8Dn 8dnJ	8b 8ffnJ	.
=5!|:	=5!|:	=5!|:
*>A	*>A	*>A
*^	*	*
16GLL	4C	8.cc 8.eeL	mf
16AJ	.	.	.
8GJ	.	.	.
.	.	16eeJk	.
4r	8GG 8GL	16cc 16dd#LL	<
.	.	16ee	.
.	8E 8G 8cJ	16gg	.
.	.	[16ee [16cccJJ	.
*v	*v	*	*
=6	=6	=6
8CL	16ee] 16cccLL]	>
.	16bbJ	.
8G 8c 8eJ	8ee 8aaJ	.
8CL	16dd# 16aaLK	.
.	8.ee 8.ggJ	.
8G 8c 8eJ	.	.
=7	=7	=7
*^	*	*
16GLL	4C	8.cc 8.eeL	.
16AJ	.	.	.
8GJ	.	.	.
.	.	16cc 16eeJk	.
4r	8C# 8c#L	16a# (16dd#LL	.
.	.	16ee	.
.	8G 8c# 8eJ	16a# 16gg	.
.	.	16eeJJ	.
*v	*v	*	*
=8	=8	=8
8D 8dL	8b 8ffL	.
8G 8B 8fJ	16ffL	.
.	16eeJJ	.
8GG 8GL	16ddLL)	.
.	16ddd	.
8G 8B 8fJ	(16dd	.
.	16dd#JJ)	.
=9	=9	=9
*^	*	*
16G^LL	4C	8.cc 8.eeL	.
16AJ	.	.	.
8GJ	.	.	.
.	.	16eeJk	.
4r	8GGL	16cc 16dd#LL	.
.	.	16ee	.
.	8G 8c 8eJ	16gg	.
.	.	[16ee [16cccJJ	.
*v	*v	*	*
=10	=10	=10
8CC 8CL	16ee] 16cccLL]	.
.	16bbJ	.
8G 8c 8eJ	8ee 8aaJ	.
8GGL	16dd# 16aaLK	.
.	8.ee 8.ggJ	.
8E 8G 8cJ	.	.
=11	=11	=11
8FF# 8F#L	16dd# 16aa (16cccLL	.
.	16ff#	.
8A 8B 8f#J	16aa	<
.	[16dd#^ [16aa^ [16bb^JJ)	.
8BBB 8BBL	16dd#] 16aa] 16bbLL]	.
.	16cccJ	.
8A 8d# 8f#J	8dd# 8aa 8bbJ	.
=12	=12	=12
8EE 8E	8ee 8gg 8bb 8eee	f
8E^ 8e^L	8g^ 8gg^L	.
8D#^ 8d#^	8a^ 8ff#^	.
8Dn^ 8dn^J	8b^ 8ff#^J	.
=13	=13	=13
*^	*	*
16GLL	4C	8.cc 8.eeL	mf
16AJ	.	.	.
8GJ	.	.	.
.	.	16eeJk	.
4r	8GG 8GL	16cc 16dd#LL	.
.	.	16ee	.
.	8E 8G 8cJ	16gg	.
.	.	[16ee [16cccJJ	.
*v	*v	*	*
=14	=14	=14
8CL	16ee] 16cccLL]	.
.	16bbJ	.
8E 8G 8cJ	8ee 8aaJ	.
8CL	16dd# 16aaLK	.
.	8.ee 8.ggJ	.
8E 8G 8cJ	.	.
=15	=15	=15
8BB 8BL	8ee 8gg# 8dddL	f
8EE 8EJ	16ee 16eeeL	.
.	[16ee [16gg# [16dddJJ	.
8FF# 8F#L	16ee] 16gg#] 16dddLL]	.
.	16eeeJ	.
8GG# 8G#J	8ee 8gg# 8dddJ	.
=16	=16	=16
8AA 8A	16aa (16cccLL	.
.	16eee	.
8r	16ccc	.
.	16aaJJ	.
4r	16eeLL	.
.	16cc	.
.	16a	.
.	16eJJ)	.
=17	=17	=17
8DD 8DL	8fL	.
8F 8A 8dJ	16gL	.
.	[16aJJ	.
8FF 8FL	16aLL]	<
.	16bJ	.
8F 8A 8dJ	8ccJ	.
=18	=18	=18
8FF# 8F#L	4a^ 4dd#^ 4aa^	.
8F# 8A 8d#J	.	.
8GG 8GL	4g 4ee 4gg	.
8G 8c 8eJ	.	.
=19	=19	=19
8GG 8GL	16b 16ff 16aaLK	.
.	8b^ 8ff^ 8gg^	.
8AA^ 8A^	.	.
.	[16b^ [16ff^ [16gg^Jk	.
8BB^ 8B^	16b] 16ff] 16ggLL]	.
.	16aaJ	.
8GG^ 8G^J	8ggJ	.
=20	=20	=20
*>A1	*>A1	*>A1
8C 8cL	8cc 8ee 8cccL	.
8E^ 8e^	8g^ 8gg^	.
8D#^ 8d#^	8a^ 8ff#^	.
8Dn^ 8dn^J	8b 8ffnJ	.
=21:|!	=21:|!	=21:|!
*>A2	*>A2	*>A2
8CC 8C	8cc 8ee 8ccc	.
16eLL	16eeLL	.
[16fJJ	[16ffJJ	.
16fLL]	16ffLL]	.
16d#J	16dd#J	.
8eJ	8eeJ	.
=22	=22	=22
*>B	*>B	*>B
8E 8eL	(16eeLL	mp
.	16ff#	.
8D 8d	16gg#	.
.	16aaJJ	.
8C 8c	16bbLL	<
.	16ccc	.
8BB 8BJ	16ddd	.
.	16eeeJJ)	.
=23	=23	=23
8AA 8AL	16ee 16aa 16dddLL	.
.	16ccc	.
8E 8A 8cJ	16bb	.
.	[16ee^ [16aa^ [16ccc^JJ	.
8EE 8EL	16ee] 16aa] 16cccLL]	.
.	16bbJ	.
8E 8A 8cJ	8aaJ	.
=24	=24	=24
8BBL	16dd 16gg# 16cccLL	.
.	16bb	.
8E 8G# 8dJ	16aa#	.
.	[16dd^ [16gg#^ [16bb^JJ	>
8EEL	16dd] 16gg#] 16bbLL]	.
.	16aanJ	.
8E 8G# 8dJ	8gg#J	.
=25	=25	=25
8AAL	16cc 16ee 16bbLL	.
.	16aa	.
8E 8A 8cJ	16gg#	.
.	[16cc^ [16ee^ [16aa^JJ	.
8CL	16cc] 16ee] 16aaLL]	.
.	16dd#J	.
8E 8A 8cJ	8eeJ	.
=26	=26	=26
8E 8eL	(16eeLL	.
.	16ff#	.
8D 8d	16gg#	.
.	16aaJJ	.
8C 8c	16bbLL	<
.	16ccc	.
8BB 8BJ	16ddd	.
.	16eeeJJ)	.
=27	=27	=27
8AA 8AL	16ee 16aa 16dddLL	.
.	16ccc	.
8E 8A 8cJ	16bb	.
.	[16ee [16aa [16cccJJ	.
8EE 8EL	16ee] 16aa] 16cccLL]	<
.	16bbJ	.
8E 8A 8cJ	8aaJ	.
=28	=28	=28
*	*^	*
8FF 8F	16aaLL	8dd#L	f
.	16ccc	.	.
4B^ 4d#^ 4a^	16bb	[8dd#J	.
.	[16aaJJ	.	.
.	16aaLL]	8dd#L]	.
.	16bbJ	.	.
8FF^ 8F^	8aaJ	8dd#J	.
*	*v	*v	*
=29	=29	=29
8EE 8EL	8ee 8gg#L	.
16eL	16eeL	.
[16fJJ	[16ffJJ	.
16fLL]	16ffLL]	.
16d#J	16dd#J	.
8eJ	8eeJ	.
=30	=30	=30
8E 8eL	(16eeLL	.
.	16ff#	.
8D 8d	16gg#	.
.	16aaJJ	.
8C 8c	16bbLL	<
.	16ccc	.
8BB 8BJ	16ddd	.
.	16eeeJJ)	.
=31	=31	=31
8AA 8AL	16ee 16aa 16dddLL	.
.	16ccc	.
8E 8A 8cJ	16bb	.
.	[16ee [16aa [16cccJJ	.
8EE 8EL	16ee] 16aa] 16cccLL]	.
.	16bbJ	.
8E 8A 8cJ	8aaJ	.
=32	=32	=32
8BBL	16dd 16gg# 16cccLL	.
.	16bb	.
8E 8G# 8dJ	16aa#	.
.	[16dd [16gg# [16bbJJ	.
8EEL	16dd] 16gg#] 16bbLL]	.
.	16aanJ	.
8E 8G# 8dJ	8gg#J	.
=33	=33	=33
8AA 8AL	16bbLL	.
.	16aa	.
8A 8c 8eJ	16gg#	.
.	[16aaJJ	.
8C 8cL	16aaLL]	.
.	16aaJ	.
8E 8eJ	8cc 8ee 8aaJ	.
=34	=34	=34
8F 8fL	16a 16dd 16aaLL	.
.	16ff	.
8A 8d 8fJ	16dd	.
.	[16aJJ	.
8E 8eL	16aLL]	.
.	16ddJ	.
8D 8dJ	8a 8ffJ	.
=35	=35	=35
8E 8eL	16eeLL	.
.	16cc	.
8E 8A 8cJ	16a	.
.	[16eJJ	.
8D 8dL	16eLL]	.
.	16fJ	.
8C 8cJ	8eJ	.
=36	=36	=36
8BB 8BL	16ddLL	.
.	16cc	.
8G# 8d 8eJ	16b	.
.	[16eeJJ	.
8EE 8EL	16eeLL]	.
.	16dd	.
8G# 8d 8eJ	16cc	.
.	16bJJ	.
=37	=37	=37
*>B1	*>B1	*>B1
8A 8c 8e	8a	.
16eLL	16eeLL	.
[16fJJ	[16ffJJ	.
16fLL]	16ffLL]	.
16d#J	16dd#J	.
8eJ	8eeJ	.
=38:|!	=38:|!	=38:|!
*>B2	*>B2	*>B2
*^	*^	*
4r	4A 4c 4e	4r	8aL	.
.	.	.	8ccJ	.
8dL	4G (4f	8bL	4b	.
8BJ)	.	16ddL	.	.
.	.	16dd#JJ	.	.
*	*	*v	*v	*
*v	*v	*	*
=39	=39	=39
*>C	*>C	*>C
*^	*	*
16GLL	4C	8.cc 8.eeL	mf
16AJ	.	.	.
8GJ	.	.	.
.	.	16eeJk	.
4r	8GG 8GL	16cc 16dd#LL	<
.	.	16ee	.
.	8E 8G 8cJ	16gg	.
.	.	[16ee [16cccJJ	.
*v	*v	*	*
=40	=40	=40
8CL	16ee] 16cccLL]	>
.	16bbJ	.
8E 8G 8cJ	8ee 8aaJ	.
8GGL	16dd# 16aaLK	.
.	8.ee 8.ggJ	.
8E 8G 8cJ	.	.
=41	=41	=41
*^	*	*
16GLL	4C	8.cc 8.eeL	.
16AJ	.	.	.
8GJ	.	.	.
.	.	16cc 16eeJk	.
4r	8C# 8c#L	16a# 16dd#LL	.
.	.	16ee	.
.	8G 8c# 8eJ	16a# 16gg	.
.	.	16eeJJ	.
*v	*v	*	*
=42	=42	=42
8D 8dL	8b 8ffL	.
8G 8B 8fJ	(16ffL	<
.	16eeJJ	.
8GG 8GL	16ddLL)	.
.	16ddd'	.
8G 8B 8fJ	(16dd	.
.	16dd#JJ)	.
=43	=43	=43
*^	*	*
16GLL	4C	8.cc 8.eeL	.
16AJ	.	.	.
8GJ	.	.	.
.	.	16eeJk	.
4r	8GG 8GL	16cc 16dd#LL	.
.	.	16ee	.
.	8E 8G 8cJ	16gg	.
.	.	[16ee [16cccJJ	.
*v	*v	*	*
=44	=44	=44
8CL	16ee] 16cccLL]	.
.	16bbJ	.
8E 8G 8cJ	8ee 8aaJ	.
8GGL	16dd# 16aaLK	.
.	8.ee 8.ggJ	.
8E 8G 8cJ	.	.
=45	=45	=45
8FF# 8F#L	16dd# 16aa 16cccLL	.
.	16ff#	.
8A 8B 8f#J	16aa	.
.	[16dd#^ [16aa^ [16bb^JJ	.
8BBL	16dd#] 16aa] 16bbLL]	.
.	16cccJ	.
8A 8d# 8f#J	8dd# 8aa 8bbJ	.
=46	=46	=46
8EE 8E	8ee 8gg 8bb 8eee	.
8E^ 8e^L	8g'^ 8gg'^L	.
8D#^ 8d#^	8a 8ff#	.
8Dn^ 8dn^J	8b^ 8ffn^J	.
=47	=47	=47
*^	*	*
16GLL	4C	8.cc 8.eeL	.
16AJ	.	.	.
8GJ	.	.	.
.	.	16eeJk	.
4r	8GG 8GL	16cc 16dd#LL	<
.	.	16ee	.
.	8E 8G 8cJ	16gg	.
.	.	[16ee [16cccJJ	.
*v	*v	*	*
=48	=48	=48
8CL	16ee] 16cccLL]	>
.	16bbJ	.
8E 8G 8cJ	8ee 8aaJ	.
8GGL	16dd# 16aaLK	.
.	8.ee 8.ggJ	.
8E 8G 8cJ	.	.
=49	=49	=49
8BB 8BL	8ee 8gg# 8dddL	.
8EE 8EJ	16ee 16gg# 16eeeL	.
.	[16ee [16gg# [16dddJJ	.
8FF# 8F#L	16ee] 16gg#] 16dddLL]	.
.	16eeeJ	.
8GG# 8G#J	8ee 8gg# 8dddJ	.
=50	=50	=50
8AA 8AL	16aa (16cccLL	.
.	16eee	.
8A 8c 8eJ	16ccc	.
.	16aaJJ	.
4r	16eeLL	.
.	16cc	.
.	16a	.
.	16eJJ)	.
=51	=51	=51
8DD 8DL	8fL	.
8F 8A 8dJ	16gL	.
.	[16aJJ	<
8FF 8FL	16aLL]	.
.	16bJ	.
8F 8A 8dJ	8ccJ	.
=52	=52	=52
8FF# 8F#L	4a^ 4dd#^ 4aa^	.
8F# 8A 8d#J	.	.
8GG 8GL	4g^ 4ee^ 4gg^	.
8G 8c 8eJ	.	.
=53	=53	=53
8GG^ 8G^L	16b 16ff 16aaLK	.
.	8b^ 8ff^ 8gg^	.
8AA^ 8A^J	.	.
.	[16b^ [16ff^ [16gg^Jk	.
8BB^ 8B^L	16b] 16ff] 16ggLL]	.
.	16aaJ	.
8GG^ 8G^J	8b 8ff 8ggJ	.
=54	=54	=54
8C^ 8c^	8cc 8ee 8ccc	.
8r	16g 16ggLL	.
.	16g 16ggJJ	.
8r	8g 8ggL	.
8AA# 8A#	8g 8cc# 8ee 8ggJ	.
=55!|:	=55!|:	=55!|:
*>D	*>D	*>D
8BB 8BL	[4g [4dd [4ff [4gg	mf
8G 8B 8fJ	.	.
8GG^ 8G^L	16g] 16dd] 16ff] 16ggLL]	.
.	16ggJ	.
8FF^ 8F^J	8g 8b 8ddJ	.
=56	=56	=56
8EE^ 8E^L	16g 16ccLK	.
.	8gg^	.
8G 8c 8eJ	.	.
.	[16g [16ee [16ggJk	.
8E 8eL	8g] 8ee] 8ggL]	.
8D 8dJ	8g# 8dd 8ee 8gg#J	.
=57	=57	=57
8C# 8c#L	[4a [4cc# [4ee [4aa	<
8E 8G 8A 8c#J	.	.
8AA^ 8A^L	16a] 16cc#] 16ee] 16aaLL]	.
.	16aaJ	.
8GG^ 8G^J	8a 8cc# 8eeJ	.
=58	=58	=58
8FF 8FL	16a 16ddLK	.
.	8aa^	.
8F 8A 8dJ	.	.
.	[16a [16ff [16aaJk	.
8D 8dL	8a] 8ff] 8aaL]	.
8C# 8c#J	8b- 8ee 8aaJ	ff
=59	=59	=59
8D 8dL	8.bn 8.ff 8.aaL	.
8G 8B 8fJ	.	.
.	16a#Jk	.
8GG 8GL	16bLK	.
.	8b^ 8ff^ 8gg^	.
8G 8B 8fJ	.	.
.	16bJk	.
=60	=60	=60
8D 8dL	16ff 16aaLL	.
.	16a#	.
8G 8B 8fJ	16b	.
.	[16ee [16ggJJ	.
8GG^ 8G^L	16ee] 16ggLL]	.
.	16bJ	.
8BB^ 8B^J	8dd 8ff 8ggJ	.
=61	=61	=61
8C 8cL	8.cc 8.ee 8.aaL	.
8G 8c 8eJ	.	.
.	16bJk	.
8EE 8EL	16ccLK	.
.	8ee^ 8gg^	.
8G 8c 8eJ	.	.
.	16ccJk	.
=62	=62	=62
8GG 8GL	16cc 16ee 16aaLL	.
.	16b	.
8E 8G 8cJ	16cc	.
.	[16cc [16ee [16ggJJ	.
8C 8cL	8cc] 8ee] 8ggL]	.
8AA# 8A#J	8g 8cc# 8ee 8ggJ	.
=63	=63	=63
8BB 8BL	[4g [4dd [4ff [4gg	mf
8D 8F 8G 8BJ	.	.
8GG^ 8G^L	16g] 16dd] 16ff] 16ggLL]	.
.	16ggJ	.
8FF^ 8F^J	8g 8b 8ddJ	.
=64	=64	=64
8EE 8EL	16g 16ccLK	.
.	8gg^	.
8G 8c 8eJ	.	.
.	[16g [16ee [16ggJk	.
8E^ 8e^L	8g] 8ee] 8ggL]	.
8D^ 8d^J	8g# 8dd 8ee 8gg#J	.
=65	=65	=65
8C#^ 8c#^L	[4a [4cc# [4ee [4aa	.
8G 8c# 8eJ	.	.
8AA^ 8A^L	16a] 16cc#] 16ee] 16aaLL]	.
.	16aaJ	.
8GG^ 8G^J	8a 8cc# 8eeJ	.
=66	=66	=66
8FF 8FL	16a 16ddLK	.
.	8aa	.
8F 8A 8dJ	.	.
.	[16a [16ff [16aaJk	.
8DD 8DL	16a] 16ff] 16aaLL]	.
.	16ffJ	.
8FF 8FJ	8a 8dd 8aaJ	.
=67	=67	=67
8FF#^ 8F#^L	8.cc 8.dd# 8.aaL	ff
8GG^ 8G^J	.	.
.	16ff#Jk	.
8AA^ 8A^L	(16dd#LL	.
.	16ff#J	.
8FF#^ 8F#^J	8cc 8dd# 8aaJ)	.
=68	=68	=68
8GG 8GL	8cc 8ee 8ggL	.
8G 8c 8eJ	16cc 16ee 16aaL	.
.	[16cc [16ee [16ggJJ	.
8EE 8EL	16cc] 16ee] 16ggLL]	.
.	16gJ	.
8CC# 8C#J	8g 8b- 8eeJ	.
=69	=69	=69
8DD 8DL	8f 8a 8ffL	.
8F 8A 8dJ	(16ddL	.
.	16ccJJ	.
8GG 8GL	16bLL	.
.	16dd	.
8F 8G 8BJ	16a	.
.	16bJJ)	.
=70	=70	=70
*>D1	*>D1	*>D1
8C 8E 8G 8c	8e 8ccL	.
8r	16g 16ggL	.
.	16g 16ggJJ	.
8r	8g 8ggL	.
8AA# 8A#	8g 8cc# 8ee 8ggJ	.
=71:|!	=71:|!	=71:|!
*>D2	*>D2	*>D2
8C 8E 8G 8c	8e 8ccL	ff
8r	(16eeL	.
.	16ffJJ	.
4r	16ff#LL	.
.	16gg	.
.	16aa	.
.	16bbJJ)	.
=72	=72	=72
*>E	*>E	*>E
8AA 8A	8cc 8ee 8ff# 8ccc	.
4AA 4A	4cc 4ee 4ff# 4ccc	.
8C 8c	8a 8ee 8ff# 8aa	.
=73	=73	=73
*	*^	*
8BB^ 8B^L	4r	8b^ 8dd#^ 8ff#^ 8bb^L	.
16F#L	.	16f#L	.
[16BJJ	.	[16bJJ	.
16B]	(16bLL]	16r	.
8.r	16ff#J	16f#LK	.
.	8bbJ)	8bJ	.
*	*v	*v	*
=74	=74	=74
8C^ 8c^	8a 8ee 8ff# 8aa	.
4AA^ 4A^	4cc^ 4ee^ 4ff#^ 4ccc^	.
8AA^ 8A^	8cc^ 8ee^ 8ff#^ 8ccc^	.
=75	=75	=75
8BB^ 8B^L	8b^ 8dd#^ 8ff#^ 8bb^L	.
(16BL	(16bL	.
16A#JJ	16a#JJ	.
8B)	8b)	.
=	=	=
*k[f#]	*k[f#]	*k[f#]
8r	16eeLL	mf
.	16ff#JJ	.
=76	=76	=76
8E 8G 8BL	16ggLL	.
.	16ff#	.
8E 8G 8BJ	16ffn	.
.	[16eeJJ	.
4E^ 4G^ 4B-^ 4c#^	16eeLL]	.
.	16cc#	.
.	16b	.
.	16b-JJ	.
=77	=77	=77
4E 4G 4A 4cn	(16aLL	.
.	16bn	.
.	16cc	.
.	16aJJ	.
4D# 4F# 4A 4c	16ccLL	.
.	16dd#J	.
.	8ff#J)	.
=78	=78	=78
8E 8G 8BL	16ggLL	.
.	16ff#	.
8E 8G 8BJ	16ffn	.
.	[16eeJJ	.
4E 4G 4B- 4c#	16eeLL]	.
.	16cc#	.
.	16b	.
.	16b-JJ	.
=79	=79	=79
4E 4A 4cn	16aLL	.
.	16b	.
.	16cc	.
.	16aJJ	.
8D# 8A 8cL	8f#L	.
16f#L	(16aL	.
16gJJ	16bJJ	.
=80	=80	=80
&(8aL&)	8ccL)	.
16d#L	(16f#L	.
16eJJ	16gJJ	.
&(8f#L&)	8aL)	.
16cL	(16d#L	.
16c#JJ	16eJJ	.
=81	=81	=81
&(8d#L&)	8f#L)	.
16AL	(16cL	.
16BJJ	16dnJJ	.
&(8cL&)	8e-L)	.
16F#L	(16AL	.
16GJJ	16BJJ	.
=82	=82	=82
*	*^	*
&(8AL&)	4r	8cL)	.
(16F#L	.	(16AL	.
16GJJ	.	16BJJ	.
8A)	4c)	8cL	.
8AA^ 8A^	.	8cc^ 8ee^ 8ff#^ 8ccc^J	.
*	*v	*v	*
=83	=83	=83
8BB^ 8B^	8b^ 8dd#^ 8ff#^ 8bb^L	.
16BLL	16bL	.
16A#JJ	16a#JJ	.
8B	8bL	.
8r	(16eeL	.
.	16ff#JJ)	.
=84	=84	=84
8E 8G 8BL	16ggLL	.
.	16ff#	.
8E 8G 8BJ	16ffn	.
.	[16eeJJ	.
4E^ 4G^ 4B-^ 4c#^	16eeLL]	.
.	16cc#	.
.	16b	.
.	16b-JJ	.
=85	=85	=85
4E 4G 4An 4cn	16aLL	.
.	16bn	.
.	16cc	.
.	16aJJ	.
4D#^ 4F#^ 4A^ 4c^	16ccLL	.
.	16dd#J	.
.	8ff#J	.
=86	=86	=86
8E 8G 8BL	16ggLL	.
.	16ff#	.
8E 8G 8BJ	16ffn	.
.	[16eeJJ	.
4E^ 4G^ 4B-^ 4c#^	16eeLL]	.
.	16cc#	.
.	16b	.
.	16b-JJ	.
=87	=87	=87
4E 4A 4cn	16aLL	.
.	16bn	.
.	16cc	.
.	16aJJ	.
8D#^ 8A^ 8c^	8f#	.
8r	8r	.
=88	=88	=88
16f#LL	16aaLL	.
16fn	16aa-	.
16e	16gg	.
[16d#JJ	[16ff#JJ	.
16d#LL]	16ff#LL]	.
16dn	16ffn	.
16c#	16ee	.
16cnJJ	16ee-JJ	.
=89	=89	=89
16dLL	16ddLL	.
16c#	16cc#	.
16cn	16ccn	.
[16BJJ	[16bJJ	.
16BLL]	16bLL]	.
16B-	16b-	.
16A	16a	.
16A-JJ	16a-JJ	.
=90	=90	=90
8G	8gL	.
*clefG2	*	*
16gLL	(16ggL	.
16f#JJ	16ff#JJ	.
&(8gL&)	8ggL)	.
16gL	(16ggL	.
16aJJ	16aaJJ	.
=91	=91	=91
&(8g&)	8gg)	.
*clefF4	*	*
8E 8eL	8g^ 8gg^L	.
8D# 8d#	8a^ 8ff#^	.
8Dn 8dnJ	8b 8ffnJ	.
=92	=92	=92
*k[]	*k[]	*k[]
*^	*	*
16GLL	4C	8.cc 8.eeL	mf
16AJ	.	.	.
8GJ	.	.	.
.	.	16eeJk	.
4r	8GG 8GL	16cc 16dd#LL	<
.	.	16ee	.
.	8E 8G 8cJ	16gg	.
.	.	[16ee [16cccJJ	.
*v	*v	*	*
=93	=93	=93
8CL	16ee] 16cccLL]	>
.	16bbJ	.
8G 8c 8eJ	8ee 8aaJ	.
8CL	16dd# 16aaLK	.
.	8.ee 8.ggJ	.
8G 8c 8eJ	.	.
=94	=94	=94
*^	*	*
16GLL	4C	8.cc 8.eeL	.
16AJ	.	.	.
8GJ	.	.	.
.	.	16cc 16eeJk	.
4r	8C# 8c#L	16a# (16dd#LL	.
.	.	16ee	.
.	8G 8c# 8eJ	16a# 16gg	.
.	.	16eeJJ	.
*v	*v	*	*
=95	=95	=95
8D 8dL	8b 8ffL	.
8G 8B 8fJ	16ffL	.
.	16eeJJ	.
8GG 8GL	16ddLL)	.
.	16ddd	.
8G 8B 8fJ	(16dd	.
.	16dd#JJ)	.
=96	=96	=96
*^	*	*
16G^LL	4C	8.cc 8.eeL	.
16AJ	.	.	.
8GJ	.	.	.
.	.	16eeJk	.
4r	8GGL	16cc 16dd#LL	.
.	.	16ee	.
.	8G 8c 8eJ	16gg	.
.	.	[16ee [16cccJJ	.
*v	*v	*	*
=97	=97	=97
8CC 8CL	16ee] 16cccLL]	.
.	16bbJ	.
8G 8c 8eJ	8ee 8aaJ	.
8GGL	16dd# 16aaLK	.
.	8.ee 8.ggJ	.
8E 8G 8cJ	.	.
=98	=98	=98
8FF# 8F#L	16dd# 16aa (16cccLL	.
.	16ff#	.
8A 8B 8f#J	16aa	.
.	[16dd# [16aa [16bbJJ)	<
8BBB 8BBL	16dd#] 16aa] 16bbLL]	.
.	16cccJ	.
8A 8d# 8f#J	8dd# 8aa 8bbJ	.
=99	=99	=99
8EE 8E	8ee 8gg 8bb 8eee	f
8E^ 8e^L	8g^ 8gg^L	.
8D#^ 8d#^	8a^ 8ff#^	.
8Dn^ 8dn^J	8b^ 8ffn^J	.
=100	=100	=100
*^	*	*
16GLL	4C	8.cc 8.eeL	mf
16AJ	.	.	.
8GJ	.	.	.
.	.	16eeJk	.
4r	8GG 8GL	16cc 16dd#LL	.
.	.	16ee	.
.	8E 8G 8cJ	16gg	.
.	.	[16ee [16cccJJ	.
*v	*v	*	*
=101	=101	=101
8CL	16ee] 16cccLL]	.
.	16bbJ	.
8E 8G 8cJ	8ee 8aaJ	.
8CL	16dd# 16aaLK	.
.	8.ee 8.ggJ	.
8E 8G 8cJ	.	.
=102	=102	=102
8BB 8BL	8ee 8gg# 8dddL	f
8EE 8EJ	16ee 16gg# 16eeeL	.
.	[16ee 16gg# [16dddJJ	.
8FF# 8F#L	16ee] 16gg# 16dddLL]	.
.	16eeeJ	.
8GG# 8G#J	8ee 8gg# 8dddJ	.
=103	=103	=103
8AA 8A	16aa (16cccLL	.
.	16eee	.
8r	16ccc	.
.	16aaJJ	.
4r	16eeLL	.
.	16cc	.
.	16a	.
.	16eJJ)	.
=104	=104	=104
8DD 8DL	8fL	.
8F 8A 8dJ	16gL	.
.	[16aJJ	.
8FF 8FL	16aLL]	<
.	16bJ	.
8F 8A 8dJ	8ccJ	.
=105	=105	=105
8FF# 8F#L	4a^ 4dd#^ 4aa^	.
8F# 8A 8d#J	.	.
8GG 8GL	4g^ 4ee^ 4gg^	.
8G 8c 8eJ	.	.
=106	=106	=106
8GG^ 8G^L	16b 16ff 16aaLK	.
.	8b^ 8ff^ 8gg^	.
8AA^ 8A^	.	.
.	[16b [16ff [16ggJk	.
8BB^ 8B^	16b] 16ff] 16ggLL]	.
.	16aaJ	.
8GG^ 8A^J	8ggJ	.
=107	=107	=107
8C 8E 8G 8c	16cccLL	ff
.	16bb	.
8r	16bb-	.
.	[16aaJJ	.
4r	16aaLL]	.
.	16aa-	.
.	16gg	.
.	16ff#JJ	.
=108	=108	=108
2r	16ffnLL	.
.	16ee	.
.	16ee-	.
.	[16ddJJ	.
.	16ddLL]	.
.	16eenJ	.
.	8ffJ	.
=109	=109	=109
8DL	8a 8dd 8ff 8aa	.
16EL	8r	.
[16FJJ	.	.
16FLL]	8r	.
16DJ	.	.
8GG 8GJ	8b 8dd 8ff 8bb	.
=110	=110	=110
8CC 8C	8cc 8ee 8gg 8ccc	.
8r	8r	.
4r	4r	.
==	==	==
*-	*-	*-
!!!ENC: Craig Stuart Sapp
!!!END: 2005/01/22
!!!EEV: 2018/06/01
